X:79
C:Page 40
T:Chinese Dance. MBe.79, The
S:Matthew Betham MS, Towcett Cumbria, 1815
O:England;Cumbria;Towcett
Z:VMP – Hugh Taylor, 2012
M:3/4
L:1/8
Q:3/4=50
R:.waltz
W:No key signature written, D assumed.
N:No time signature written.
K:D
“^Qu in MS.no key sig in MS”A2|dcdfec|dfBecA|dcdfeg|fagbaf|
dcdfec|dfBecA|dBGBAF|D2 d2″Fine”:|
“Qu in MS”A2|AGABcA|dcdefd|gfgefd|ecAcBG|
AGABcA|dcdefd|gfgefd|”^a3 in MS”a4″D.C.”|]

